boxicons/svg/regular/bx-trending-down.svg

<svg xmlns="http://www.w3.org/2000/svg" width="24" height="24" viewBox="0 0 24 24"><path d="m14 9.586-4 4-6.293-6.293-1.414 1.414L10 16.414l4-4 4.293 4.293L16 19h6v-6l-2.293 2.293z"/></svg>

<svg xmlns="http://www.w3.org/2000/svg" width="24" height="24" viewBox="0 0 24 24"><path d="M14 9.586L10 13.586 3.707 7.293 2.293 8.707 10 16.414 14 12.414 18.293 16.707 16 19 22 19 22 13 19.707 15.293z"/></svg>
